X: 17095
T: Hedgehog, The
R: polka
M: 2/4
K: Gmajor
|:D2|G2 G2|G2 AG|GFF^E|F2 DF|A2 A2|A2 dc|B2 G2|G2 GF|
E2 E2|EGFE|E2 D2|D4|D2 FA|cAFA|G2 G2|G2:|
|:B2|d2 dd|d2 ed|dccB|c2 D2|c2 c2|c2 dc|cBB^A|B2 GF|
E2 E2|EGFE|E2 D2|D4|D2 FA|cAFA|G2 G2|G2:|
|:e3 ^d|e3 d|cdcA|G2 E2|FGFD|B2 A2|GAGE|c2 c2|
e3 ^d|e3 d|cdcA|G2 E2|FEDE|FGAB|c2 c2|1 c2 G2:|2 c4||

